healthcode/jkb/static/hsicon.svg

<svg height="50" viewBox="0 0 51 50" width="51" xmlns="http://www.w3.org/2000/svg"><g fill="none" transform="translate(.8 .000001)"><path d="m0 .000003h50v49.999997h-50z" fill="#000" opacity="0"/><g fill="#1f90fb"><path d="m24.9994322 4.53001692c.3952248 0 .7869809.07373239 1.1551529.21744052l14.628538 5.71913856c1.2163751.475264 2.0169874 1.6476406 2.0169874 2.9535671v12.7848228c-.0260476 8.2740647-11.8176662 16.1506209-16.234427 18.8120023-1.0115821.6076098-2.2768902.6032466-3.284258-.0113251-4.3816531-2.6659113-16.01245641-10.5084925-16.08153911-18.6862944v-12.8992056c0-1.3056442.79992514-2.4779396 2.01585497-2.9535671l14.63193564-5.71913856c.367071-.14342088.7576605-.21744052 1.1517552-.21744052m0-4.53001384c-.9595549-.00075323-1.9107225.1786471-2.8040768.52888184l-14.62853807 5.7191386c-2.95320616 1.1545724-4.89694189 4.00126218-4.89694189 7.17213958v12.9365782c.04303511 4.7870889 2.67497148 9.7157406 7.82446156 14.6398623 3.8018117 3.6409962 8.1698748 6.4960355 10.4360129 7.8742912 2.4478979 1.4912095 5.5214425 1.4994999 7.9773493.0215176 2.2899206-1.3805208 6.7044163-4.2412226 10.5458657-7.9003388 5.2095126-4.9637593 7.8607016-9.9354461 7.8765566-14.7780277v-12.7972803c0-3.1708774-1.9437357-6.01756719-4.8969419-7.17213959l-14.6296706-5.71574109c-.8933244-.35033849-1.8445118-.52974256-2.8040768-.52888184z"/><path d="m31.7944488 22.3782594h-13.5900331c-.8092877.0001188-1.5571513-.4315628-1.9618294-1.1324067-.4046782-.7008439-.4046782-1.5643535 0-2.2651974.4046781-.7008439 1.1525417-1.1325255 1.9618294-1.1324067h13.5900331c1.2507981.0001837 2.2646729 1.0142073 2.2646729 2.2650054 0 1.250798-1.0138748 2.2648217-2.2646729 2.2650054z"/><path d="m24.9994322 29.1732755c-.6007168 0-1.1768298-.2386338-1.6016007-.6634047-.424771-.4247709-.6634048-1.0008839-.6634048-1.6016007v-13.5900323c0-1.2509279 1.0140775-2.2650054 2.2650055-2.2650054s2.2650055 1.0140775 2.2650055 2.2650054v13.5900323c0 1.250928-1.0140775 2.2650054-2.2650055 2.2650054z"/></g></g></svg>

<?xml version="1.0" encoding="UTF-8"?>
<svg width="51px" height="50px" viewBox="0 0 51 50" version="1.1" xmlns="http://www.w3.org/2000/svg" xmlns:xlink="http://www.w3.org/1999/xlink">
    <title>核酸icon</title>
    <g id="页面-1" stroke="none" stroke-width="1" fill="none" fill-rule="evenodd">
        <g id="画板" transform="translate(-232.000000, -843.000000)" fill-rule="nonzero">
            <g id="编组" transform="translate(232.800000, 843.000001)">
                <rect id="矩形" fill="#000000" opacity="0" x="0" y="2.76909557e-06" width="50" height="49.9999972"></rect>
                <path d="M24.9994322,4.53001692 C25.394657,4.53001692 25.7864131,4.60374931 26.1545851,4.74745744 L40.7831231,10.466596 C41.9994982,10.94186 42.8001105,12.1142366 42.8001105,13.4201631 L42.8001105,26.2049859 C42.7740629,34.4790506 30.9824443,42.3556068 26.5656835,45.0169882 C25.5541014,45.624598 24.2887933,45.6202348 23.2814255,45.0056631 C18.8997724,42.3397518 7.26896909,34.4971706 7.19988639,26.3193687 L7.19988639,13.4201631 C7.19988639,12.1145189 7.99981153,10.9422235 9.21574136,10.466596 L23.847677,4.74745744 C24.214748,4.60403656 24.6053375,4.53001692 24.9994322,4.53001692 M24.9994322,3.08242012e-06 C24.0398773,-0.000750153741 23.0887097,0.178650175 22.1953554,0.528884918 L7.56681733,6.24802352 C4.61361117,7.40259592 2.66987544,10.2492857 2.66987544,13.4201631 L2.66987544,26.3567413 C2.71291055,31.1438302 5.34484692,36.0724819 10.494337,40.9966036 C14.2961487,44.6375998 18.6642118,47.4926391 20.9303499,48.8708948 C23.3782478,50.3621043 26.4517924,50.3703947 28.9076992,48.8924124 C31.1976198,47.5118916 35.6121155,44.6511898 39.4535649,40.9920736 C44.6630775,36.0283143 47.3142665,31.0566275 47.3301215,26.2140459 L47.3301215,13.4167656 C47.3301215,10.2458882 45.3863858,7.39919841 42.4331796,6.24462601 L27.803509,0.528884918 C26.9101846,0.178546433 25.9589972,-0.000857637377 24.9994322,3.08242012e-06 Z" id="形状" fill="#1F90FB"></path>
                <path d="M31.7944488,22.3782594 L18.2044157,22.3782594 C17.395128,22.3783782 16.6472644,21.9466966 16.2425863,21.2458527 C15.8379081,20.5450088 15.8379081,19.6814992 16.2425863,18.9806553 C16.6472644,18.2798114 17.395128,17.8481298 18.2044157,17.8482486 L31.7944488,17.8482486 C33.0452469,17.8484323 34.0591217,18.8624559 34.0591217,20.113254 C34.0591217,21.364052 33.0452469,22.3780757 31.7944488,22.3782594 L31.7944488,22.3782594 Z" id="路径" fill="#1F90FB"></path>
                <path d="M24.9994322,29.1732755 C24.3987154,29.1732755 23.8226024,28.9346417 23.3978315,28.5098708 C22.9730605,28.0850999 22.7344267,27.5089869 22.7344267,26.9082701 L22.7344267,13.3182378 C22.7344267,12.0673099 23.7485042,11.0532324 24.9994322,11.0532324 C26.2503602,11.0532324 27.2644377,12.0673099 27.2644377,13.3182378 L27.2644377,26.9082701 C27.2644377,28.1591981 26.2503602,29.1732755 24.9994322,29.1732755 L24.9994322,29.1732755 Z" id="路径" fill="#1F90FB"></path>
            </g>
        </g>
    </g>
</svg>
